!!!!SEGMENT: pl-wn--mus-iii-62-791-7_zelenski-wladyslaw--piesn-gabryelli-op-25-dziwne-dziewcze.krn
!!!cenid: 18xx:3699
!!!COM: Żeleński, Władysław
!!!COM-rismID: pe41024455
!!!CDT: 1837/07/06-1921/01/23
!!!CNT: Polish
!!!OTL: Pieśń Gabryelli op. 25/Dziwne dziewczę
!!!PDT:
!!!AGN:
!!!SMS-siglum: PL-Wn
!!!SMS-shelfmark: Mus.III.62.791/7
!!!SMS-shelfwork: W
!!!SMS-variant:
!!!SMS-altvar:
!!!NIFC-rismSourceID:
!!!NIFC-rismChildID:
!!!NIFC-islandoraID:
!!!URL-pdf-islandora:
!!!URL-scan: https://polona.pl/item/piesni-gabryelli-z-muzyka-wladylawa-zelenskiego-op-25-nr-7-dziwne-dziewcze,Mzg4MDUyNjQ/0 @EN{Scan on Polona} @PL{Skany w portalu Polona}
!!!ONB-nifc:
!!!AIN: 1 piano
!!!key: B
**kern	**dynam	**kern	**dynam	**kern	**text	**dynam
*part3	*part3	*part2	*part2	*part1	*part1	*part1
*staff3	*	*staff2	*	*staff1	*staff1	*
*I"Fortepian	*	*I"Fortepian	*	*I"Śpiew	*	*
*Ipiano	*	*	*Ipiano	*	*	*I
*ICklav	*	*	*ICklav	*	*	*ICvox
*IGacmp	*	*	*IGacmp	*	*	*
*clefF4	*	*clefG2	*	*clefG2	*	*
*k[f#c#g#d#a#]	*	*k[f#c#g#d#a#]	*	*k[f#c#g#d#a#]	*	*
*B:	*	*B:	*	*B:	*	*
*M4/4	*	*M4/4	*	*M4/4	*	*
*met(c)	*	*met(c)	*	*met(c)	*	*
=1	=1	=1	=1	=1	=1	=1
*^	*	*^	*	*	*	*
!	!	!	!	!	!	!LO:TX:a:B:t=Andante ma non troppo.	!	!
*ped	*	*	*	*	*	*	*	*
*xywh-3:375,396,2494,1454	*xywh-3:375,396,2494,1454	*xywh-3:375,396,2494,1454	*xywh-3:375,396,2494,1454	*xywh-3:375,396,2494,1454	*	*xywh-3:375,396,2494,1454	*	*
4FF#/	4ryy	.	4r	4ryy	mf	1r	.	.
*clefG2	*	*	*	*	*	*	*	*
[4c#^:/ [4e: [4g#:	4B:\	.	[4cc#^:/ [4ee: [4gg#:	4b:\	.	.	.	.
*Xped	*	*	*	*	*	*	*	*
8c#/L] 8e] 8g#]	8A#\	.	8cc#/L] 8ee] 8gg#]	8a#\	.	.	.	.
(8f#/	4.ryy	.	(8ff#/	4.ryy	.	.	.	.
8e/	.	.	8ee/	.	.	.	.	.
8B#X/J	.	.	8b#X/J	.	.	.	.	.
*clefF4	*	*	*	*	*	*	*	*
*v	*v	*	*	*	*	*	*	*
*	*	*v	*v	*	*	*	*
=2	=2	=2	=2	=2	=2	=2
8d#\L	.	8dd#\L	>	1r	.	.
8c#\	.	8cc#\	.	.	.	.
8A#\	.	8a#\	.	.	.	.
8G#\J	.	8g#\J	.	.	.	.
8E#X\L	.	8e#X/L	.	.	.	.
8F#\	.	8f#/	.	.	.	.
8qA#/	.	8qa#/	.	.	.	.
8G#\	.	8g#/	.	.	.	.
8F#\J	.	[8f#/J	]]	.	.	.
=3	=3	=3	=3	=3	=3	=3
*	*	*^	*	*	*	*
*	*	*	*xywh-3:375,396,2494,1454	*	*	*	*
(2BB/)	.	8f#/L])	8ryy	.	8r	.	.
!	!	!	!	!	!	!	!LO:DY:a
.	.	(8F#/	4.F#\	p	8f#/L	Dzi-	p
.	.	8d#/	.	.	8d#/J	.	.
.	.	8e/J	.	.	8e/	-wne	.
2AA#/	.	8g#/L	4g#\	.	4g#/	dziew-	.
.	.	8B#X/	.	.	.	.	.
.	.	8c#/	4ryy	.	4f#/	-czę!	.
.	.	8f#/J)	.	.	.	.	.
!!LO:LB:g=original
=4	=4	=4	=4	=4	=4	=4	=4
*	*	*	*^	*	*	*	*
*	*	*	*	*^	*	*	*	*
*xywh-3:282,1838,2574,811	*xywh-3:282,1838,2574,811	*xywh-3:282,1838,2574,811	*xywh-3:282,1838,2574,811	*xywh-3:282,1838,2574,811	*	*xywh-3:282,1838,2574,811	*xywh-3:282,1838,2574,811	*	*
2GG#/	.	(<8b/L	8ryy	2ryy	2.ryy	.	8r	.	.
.	.	8B/	4.B\	.	.	.	8f#/L	ja	.
.	.	8d#/	.	.	.	.	8d#/J	.	.
.	.	8e/J	.	.	.	.	8e/	mo-	.
4C#/	.	4.a#/	8a#\L	8ryy	.	.	4.a#/	-wi-	.
.	.	.	8A#\	4.A#/	.	.	.	.	.
4CC#/	.	.	8e\	.	4e/	.	.	.	.
.	.	8g#/)	8g#\J	.	.	.	8g#/	-łem,	.
*	*	*	*	*v	*v	*	*	*	*
*	*	*	*v	*v	*	*	*	*
=5	=5	=5	=5	=5	=5	=5	=5
!	!	!	!LO:N:vis=2	!	!	!	!
4DD#/)	.	[2f#/	8f#\L	.	4.f#/	Wy-	.
.	.	.	8A#\	.	.	.	.
(>4D#\	.	.	8d#\	.	.	.	.
!	!	!	!	!	!	!	!LO:DY:a
.	.	.	8c#\J	.	8e/	-bierz	<
2GG#/	.	4f#/] 4B/	4ryy	<	8d#/	co	.
.	.	.	.	.	8e/	chcesz,	.
.	.	(>8.B/L	4B\	.	8f#/	wy-	.
.	.	.	.	.	8g#/	-bierz	[[
.	.	16f#/Jk)	.	.	.	.	.
=6	=6	=6	=6	=6	=6	=6	=6
2C#/	.	(4f#/	8B\L	.	4g#/	so-	.
.	.	.	8G#\	.	.	.	.
.	.	4e#X/	8A#\	[	2c#/	-bie;	.
.	.	.	8B\J	.	.	.	.
2FF#/	.	[2en/	8B#X\L	>	.	.	.
.	.	.	8d#\	.	.	.	.
.	.	.	8c#\	.	4r	.	.
.	.	.	8A#\J	.	.	.	.
!!LO:LB:g=original
=7	=7	=7	=7	=7	=7	=7	=7
*xywh-3:268,2656,2634,998	*xywh-3:268,2656,2634,998	*xywh-3:268,2656,2634,998	*xywh-3:268,2656,2634,998	*xywh-3:268,2656,2634,998	*xywh-3:268,2656,2634,998	*	*
8BB/)	.	8F#/L) 8e]	8ryy	]	8r	.	.
!	!	!	!	!	!	!	!LO:DY:a
8r	.	(8F#/	4.F#\	p	8f#/L	Kwiat	p
(4BBB/ 4BB	.	8d#/	.	.	8d#/J	.	.
.	.	8e/J	.	.	8e/	do	.
4AAA#/ 4AA#	.	8g#/L	4g#\	.	4g#/	stro-	.
.	.	8c#/	.	.	.	.	.
[4AAAn/ [>4AAn	.	8cn/	4ryy	.	4f#/	-ju,	.
.	.	8f#/J	.	.	.	.	.
=8	=8	=8	=8	=8	=8	=8	=8
*	*	*	*^	*	*	*	*
*	*	*	*	*xywh-3:268,2656,2634,998	*	*	*	*
4AAA/] 4AA]	.	8b/L	4b\	8ryy	.	8r	.	.
.	.	8B/	.	4.B\	.	8f#/L	kwiat	.
4GGG#/) 4GG#	.	8d#/	4ryy	.	.	8d#/J	.	.
!	!	!	!	!	!	!	!	!LO:DY:a
.	.	8e/J	.	.	.	8e/	do	<
4r	.	4.b/	8b\L	8ryy	<	8b\	stro-	.
.	.	.	8B\	4.B/	.	8b\	-ju,	.
(>4C##X/	.	.	8e#X\	.	.	8a#/	do	.
.	.	8g#/	8g#\J	.	.	8g#/	za-	[[
*	*	*	*v	*v	*	*	*	*
=9	=9	=9	=9	=9	=9	=9	=9
2D#\	.	4.f#/	8f#\L	.	4.f#/	-ba-	.
.	.	.	8F#\	.	.	.	.
.	.	.	8A#\	.	.	.	.
.	.	8c##X/	8G#\J	.	8e#X/	-wy	.
8DD#/)	.	8F#/) 8d#	2ryy	.	8f#/	Dam	.
8r	.	8r	.	[	8g#/	dya-	.
(4DD#/	.	4r	.	.	8a#/	-men-	.
.	.	.	.	.	8b/	-tow	.
!!LO:PB:g=original
=10	=10	=10	=10	=10	=10	=10	=10
*	*	*	*^	*	*	*	*
*xywh-4:240,327,2587,899	*	*xywh-4:240,327,2587,899	*xywh-4:240,327,2587,899	*xywh-4:240,327,2587,899	*	*xywh-4:240,327,2587,899	*	*
(2GG#/)	.	8r	8ryy	4ryy	.	4cc#\	dam	.
.	.	8B/L	[4.B\	.	.	.	.	.
.	.	8d#/	.	4d#\	<	4b\	dya-	.
.	.	8f#/J	.	.	.	.	.	.
2CC#/ 2C#	.	8B/L] 8e#X	8ryy	4ryy	.	4a#/	-men-	.
.	.	8B/	4.B\	.	.	.	.	.
.	.	8e#/	.	4e#\	.	4g#/	-tów	.
.	.	8g#/J	.	.	.	.	.	.
*	*	*	*v	*v	*	*	*	*
=11	=11	=11	=11	=11	=11	=11	=11
*^	*	*	*	*	*	*	*
*	*xywh-4:240,327,2587,899	*	*	*	*	*	*	*
*ped	*	*	*	*	*	*	*	*
8FFF#/) 8FF#	4ryy	.	8B:/L 8en: 8g#: 8cc#:	4ryy	[	2cc#\	to-	.
8r	.	.	8g#/J	.	.	.	.	.
*clefG2	*	*	*	*	*	*	*	*
[4c#:/ [4e: [4g#:	4B:\	.	[4cc#:/ [4ee: [4gg#:	4b:\	sf	.	.	.
*Xped	*	*	*	*	*	*	*	*
8c#/L] 8e] 8g#]	8A#\	.	8cc#/L] 8ee] 8gg#]	8a#\	.	4f#/	-bie.	.
(8f#/	4.ryy	.	(<8ff#/	4.ryy	.	.	.	.
8e/	.	.	8ee/	.	.	4r	.	.
8B#X/J	.	.	8b#X/J	.	.	.	.	.
*clefF4	*	*	*	*	*	*	*	*
*v	*v	*	*	*	*	*	*	*
*	*	*v	*v	*	*	*	*
=12	=12	=12	=12	=12	=12	=12
8d#\L	.	8dd#/L	>	1r	.	.
8c#\	.	8cc#/	.	.	.	.
8A#\	.	8a#/	.	.	.	.
8G#\J	.	8g#/J	.	.	.	.
8E#X\L	.	8e#X/L	.	.	.	.
8F#\	.	8f#/	.	.	.	.
8qA#/	.	8qa#/	.	.	.	.
8G#\	.	8g#/	.	.	.	.
8En\J)	.	8en/J)	]]	.	.	.
!!LO:LB:g=original
=13	=13	=13	=13	=13	=13	=13
*^	*	*^	*	*	*	*
!LO:TX:b:i:t=legato	!	!	!	!LO:N:vis=2	!	!	!	!
*xywh-4:216,1177,2630,788	*xywh-4:216,1177,2630,788	*xywh-4:216,1177,2630,788	*xywh-4:216,1177,2630,788	*xywh-4:216,1177,2630,788	*xywh-4:216,1177,2630,788	*xywh-4:216,1177,2630,788	*	*
4D#\	2ryy	.	([2d#/	8d#\L	pp	8r	.	.
!	!	!	!	!	!	!LO:TX:a:i:t=dolce	!	!
.	.	.	.	8c#\	.	4d#/	A	.
4DD#/	.	.	.	8B\	.	.	.	.
.	.	.	.	8A#\J	.	8d#/	gdyś	.
2EE\	8G#/L	.	4d#/]	2ryy	.	4g#/	smut-	.
.	8B/	.	.	.	.	.	.	.
.	8A#/	.	4c##X/)	.	.	4g#/	-na,	.
.	8G#/J	.	.	.	.	.	.	.
=14	=14	=14	=14	=14	=14	=14	=14	=14
!	!	!	!LO:N:acc=n#	!	!	!	!	!
2DD#\	8F##X/L	.	(<2c#X/	1ryy	.	8r	.	.
.	8A#/	.	.	.	.	8a#/L	na	.
.	8G#/	.	.	.	.	8b/J	.	.
.	8F##/J	.	.	.	.	8cc#\	po-	.
!	!LO:N:acc=n#	!	!	!	!	!	!	!LO:HP:a
2GG#\	8F#X/L	.	[>2B#X/	.	<	4dd#\	-cie-	<
.	8An/	.	.	.	.	.	.	.
.	8G#/	.	.	.	.	4dd#\	-chę	.
.	8F#/J	.	.	.	.	.	.	.
*v	*v	*	*	*	*	*	*	*
=15	=15	=15	=15	=15	=15	=15	=15
*^	*	*	*	*	*	*	*
*	*xywh-4:216,1177,2630,788	*	*	*	*	*	*	*
[2CC#\	8E/L	.	4B#/]	1ryy	.	[2dd#\	Dam	.
.	8D#/	.	.	.	.	.	.	.
.	8E/	.	[4G#/)	.	.	.	.	.
.	8F#/J	.	.	.	.	.	.	.
8ryy	8CC#/L]	.	8E>/L 8G#]	.	[	8dd#\]	.	.
!	!	!	!	!	!	!	!	!LO:DY:a
[4.C#\	8C#/	.	(<8e/	.	.	8cc#\	pio-	[ p
.	8D#/	.	8d#/	.	.	8b\	-sen-	.
.	8E/J	.	N[8G#>/J)	.	.	8g#/	-kę	.
!!LO:LB:g=original
=16	=16	=16	=16	=16	=16	=16	=16	=16
!	!	!	!	!	!	!	!	!
*xywh-4:246,1960,2636,844	*xywh-4:246,1960,2636,844	*xywh-4:246,1960,2636,844	*xywh-4:246,1960,2636,844	*	*	*xywh-4:246,1960,2636,844	*	*
8C#\] 8D#	8G#/LN]	<	[2d#/	1ryy	.	8b/L	tkli-	.
8r	8F##X/	.	.	.	.	8a#/J	.	.
(>4DD#\	8G#/	.	.	.	.	2d#/	-wą ;	.
.	8A#/J	[	.	.	.	.	.	.
2GG#\)	8B/L	>	2d#/]	.	.	.	.	.
.	8A#/	.	.	.	.	.	.	.
.	8qc#/	.	.	.	.	.	.	.
.	8B/	.	.	.	.	4r	.	.
.	8G#/J	]	.	.	.	.	.	.
*	*	*	*v	*v	*	*	*	*
=17	=17	=17	=17	=17	=17	=17	=17
4r	2AAA#\ [2FF#	.	8r	.p	4r	.	.
!	!	!	!LO:TX:t=P:problem=mixed beam	!	!	!	!
.	.	.	(8E#X>/L	.	.	.	.
!	!	!	!	!	!	!	!LO:DY:a
4F#\	.	.	8F#>/	.	8f#/	A	p
.	.	.	8en\J	.	8f#/	chcesz	.
8ryy	8BBB\ 8FF#]	.	8d#/L	.	4cc#\	szczęś-	.
4.F#\	8r	.	8F#>/	.	.	.	.
.	(4GGG#\ 4GG#	.	8B>/	.	4b\	-cia ?	.
.	.	.	8d#/J	.	.	.	.
*v	*v	*	*	*	*	*	*
=18	=18	=18	=18	=18	=18	=18
*	*	*^	*	*	*	*
*	*	*	*xywh-4:246,1960,2636,844	*	*	*	*
!	!	!LO:TX:t=P:problem=mixed beam	!	!	!	!	!
8FFF#\) 8FF#	.	4e/	8e\L	.	1r	.	.
*ped	*	*	*	*	*	*	*
8r	.	.	8G#>/J)	.	.	.	.
*clefG2	*	*	*	*	*	*	*
(4A#^<:/ 4c#: 4e: 4g#:	.	[4gg#^:/	4a#:\ 4cc#: 4ee:	.	.	.	.
*Xped	*	*	*	*	*	*	*
8B/) 8d#	.	8gg#/L]	8an\ 8dd#	.	.	.	.
8r	.	(8ff#/	4.ryy	>	.	.	.
4r	.	8dd#/	.	.	.	.	.
.	.	8an/J)	.	]	.	.	.
*	*	*v	*v	*	*	*	*
*clefF4	*	*	*	*	*	*
!!LO:LB:g=original
=19	=19	=19	=19	=19	=19	=19
*	*	*^	*	*	*	*
*	*	*	*^	*	*	*	*
*xywh-4:246,2773,2605,831	*xywh-4:246,2773,2605,831	*xywh-4:246,2773,2605,831	*xywh-4:246,2773,2605,831	*xywh-4:246,2773,2605,831	*	*xywh-4:246,2773,2605,831	*	*
2BBB#X/ [2GG#	.	8r	4ryy	2.ryy	p	4r	.	.
.	.	(<8F##X/L	.	.	.	.	.	.
.	.	8G#/	4.G#\	.	.	8g#/	A	.
.	.	8f#/J	.	.	.	8g#/	chcesz	.
8CC#/ 8GG#]	.	8e/L	.	.	.	4dd#\	szczę-	.
8r	.	8G#/	4.G#\	.	.	.	.	.
(4AAA#X/ 4AA#X	.	8c#/	.	4c#\	.	4cc#\	-ścia ?	.
.	.	8e/J	.	.	.	.	.	.
*	*	*	*v	*v	*	*	*	*
=20	=20	=20	=20	=20	=20	=20	=20
8GGG#/) 8GG#	.	4f#/	8f#\L	.	2r	.	.
*ped	*	*	*	*	*	*	*
8r	.	.	8A#X\J)	.	.	.	.
*clefG2	*	*	*	*	*	*	*
(4B#X^<:/ 4d#: 4f#: 4a#:	.	[4aa#^:/	4b#X:\ 4dd#: 4ff#:	.	.	.	.
*Xped	*	*	*	*	*	*	*
8c#/) 8e#X	.	8aa#/L]	8bn\ 8ee#X	.	8r	.	.
!	!	!	!	!	!LO:TX:a:i:t=espressivo molto	!	!
8r	.	(8gg#/	4.ryy	>	4cc#\	to	.
4r	.	8ee#/	.	.	.	.	.
.	.	8bn/J)	.	]]	8cc#\	dam	.
*clefF4	*	*	*	*	*	*	*
=21	=21	=21	=21	=21	=21	=21	=21
!	!	!	!LO:N:vis=2	!	!	!	!
4r	.	(2een/	8ee\L	p	2ee\	ser-	.
.	.	.	8b\	.	.	.	.
(2c#\	.	.	8a#\	.	.	.	.
.	.	.	8g#\J	.	.	.	.
.	.	2dd#/	8f##X\L	.	4dd#\	-ce	.
.	.	.	8g#\	.	.	.	.
4B\)	.	.	8a#\	.	4r	.	.
.	.	.	8g#\J	.	.	.	.
!!LO:PB:g=original
=22	=22	=22	=22	=22	=22	=22	=22
!	!	!	!LO:N:vis=2.	!	!	!	!
*xywh-5:195,398,2594,807	*xywh-5:195,398,2594,807	*xywh-5:195,398,2594,807	*xywh-5:195,398,2594,807	*	*xywh-5:195,398,2594,807	*	*
(>2A#\	.	2.cc#/	8cc#\L	<	8r	.	.
.	.	.	8f#\	.	4f#/	to	.
!	!	!LO:TX:b:i:t=un poco	!	!	!	!	!
.	.	.	8e#X\	.	.	.	.
.	.	.	8en\J	.	8f#/	dam	.
4An\	.	.	8d#\L	.	4cc#\	ser-	.
.	.	.	8e\	.	.	.	.
8B\L	.	[4b/)	8g#\	.	8b\	-ce	.
8A\J	.	.	8f#\J	.	8b\	I	.
=23	=23	=23	=23	=23	=23	=23	=23
8G#\L	.	4b/]	(<8e\L	.	(4b\	mi-	.
8F#\	.	.	8dn\	.	.	.	.
!	!	!	!	!	!	!	!LO:DY:a
8E#X\	.	2.c#/	8c#\	<	(2c#/)	-łość_	<
8D#\J	.	.	8B#X\J	.	.	.	.
8C#/)	.	.	8Bn\L	.	.	.	.
8r	.	.	8A#\	.	.	.	.
(4CC#/	.	.	8B\	.	8d#/)	.	.
.	.	.	8G#\J)	.	8c#/	praw-	.
=24	=24	=24	=24	=24	=24	=24	=24
*^	*	*	*	*	*	*	*
*	*xywh-5:195,398,2594,807	*	*	*	*	*	*	*
!	!	!	!	!	!	!	!	!LO:DY:a
[2FF#/)	2.ryy	.	(2.e/	8B\L	.	(2.g#/	-dzi-	>
.	.	.	.	8G#\	.	.	.	.
.	.	.	.	8A#\	.	.	.	.
.	.	.	.	8B\J	.	.	.	.
2FF#\]	.	.	.	8B#X\L	[	.	.	.
.	.	.	.	8c#\J	>	.	.	.
.	.	.	8qe/	.	.	.	.	.
.	4En/	.	8.d#/L	4A#\	.	4f#/)	.	]]
.	.	.	16c#/Jk)	.	]]	.	.	.
!!LO:LB:g=original
=25	=25	=25	=25	=25	=25	=25	=25	=25
*xywh-5:207,1200,2698,838	*xywh-5:207,1200,2698,838	*xywh-5:207,1200,2698,838	*xywh-5:207,1200,2698,838	*	*xywh-5:207,1200,2698,838	*xywh-5:207,1200,2698,838	*	*
8BB/ 8D#	2ryy	.	8B/	4ryy	.	4B/	-wą.	.
8r	.	.	8r	.	.	.	.	.
!	!	!	!LO:TX:b:i:t=dolce	!	!	!	!	!
[4E:\ [4Gn: [4B: [4d#:	.	.	[4b:/ [4dd#:	[4e:\ [4gn:	.	4r	.	.
8d#/L]	8E\] 8G] 8B]	.	8b/L] 8dd#]	8e\] 8g]	.	2r	.	.
(8c#/	4.ryy	.	(8cc#/	4.ryy	.	.	.	.
8B/	.	.	8b/	.	.	.	.	.
8G/J	.	.	8g#X/J	.	.	.	.	.
*v	*v	*	*	*	*	*	*	*
*	*	*v	*v	*	*	*	*
=26	=26	=26	=26	=26	=26	=26
8F#\L	.	8f#/L	.	2r	.	.
8E\	.	8e/	.	.	.	.
8F#\	.	8f#/	.	.	.	.
8Gn\J	.	8gn/J	.	.	.	.
!	!	!	!	!	!	!LO:DY:a
2B\)	.	[2b\)	.	[2b\	O_	p
=27||	=27||	=27||	=27||	=27||	=27||	=27||
*k[f#]	*	*k[f#]	*	*k[f#]	*	*
*M3/4	*	*M3/4	*	*M3/4	*	*
!	!	!	!	!LO:TX:a:i:t=ben parlan`do	!	!
!	!	!LO:TX:b:i:t=e grazioso	!	!LO:TX:a:B:t=Quasi Allegretto	!	!
(>2D\	.	8.d/L 8.f# 8.b]	pp	8.b\]	.	.
.	.	16c/Jk 16f# 16a	.	16a/	-na	.
.	.	(4d'/ 4f# 4b	.	4b\	wszys-	.
4GG/	.	4B'/) 4d 4g	.	4g/	-tko	.
=28	=28	=28	=28	=28	=28	=28
*^	*	*	*	*	*	*
*	*xywh-5:207,1200,2698,838	*	*	*	*	*	*
4AA/)	4ryy	.	(8.A/L 8.c#X 8.f#	.	8.f#/	ra-	.
.	.	.	16G'/Jk) 16c# 16e	.	16e/	-zem	.
8F#/L	4DD\	.	[<2d/	.	4f#/	wzię-	.
8A/	.	.	.	.	.	.	.
8B/	4D\	.	.	.	4d/	-ła ,	.
8cn/J	.	.	.	.	.	.	.
*v	*v	*	*	*	*	*	*
!!LO:LB:g=original
=29	=29	=29	=29	=29	=29	=29
*	*	*^	*	*	*	*
*xywh-5:226,2020,2520,777	*xywh-5:226,2020,2520,777	*xywh-5:226,2020,2520,777	*xywh-5:226,2020,2520,777	*	*xywh-5:226,2020,2520,777	*	*
4GG/	.	4d/]	(8.B\L	.	8.b\	Ra-	.
.	.	.	16A\Jk	.	16a/	-zem	.
4r	.	4ryy	8G\L	.	4g/	po-	.
.	.	.	8A\	.	.	.	.
(4AA/	.	4G/ 4e	8B\	.	4e/	-mię-	.
.	.	.	8c#X\J	.	.	.	.
=30	=30	=30	=30	=30	=30	=30	=30
[4DD/) [4F#	.	8c/ 8a	8.e\L	.	4a/	-sza-	.
.	.	2ryy	.	.	.	.	.
.	.	.	16f#\Jk	.	.	.	.
8DD/] 8F#]	.	.	8d\L	.	2d/	-ła ,	.
8r	.	.	8f#\	.	.	.	.
4r	.	.	8g\	.	.	.	.
.	.	8ryy	8a\J)	.	.	.	.
*	*	*v	*v	*	*	*	*
=31	=31	=31	=31	=31	=31	=31
(2DD/ 2D	.	8.d/L 8.f# 8.b	.	8.b\	W mo-	.
.	.	16c/Jk 16f# 16a	.	16a/	-ją	.
.	.	(4d'/ 4f# 4b	.	4b\	piosn-	.
4EE/) 4E	.	4B'/) 4e 4g	.	4g/	-kę	.
!!LO:LB:g=original
=32	=32	=32	=32	=32	=32	=32
*xywh-5:220,2791,2630,819	*	*xywh-5:220,2791,2630,819	*	*xywh-5:220,2791,2630,819	*	*
(>2AAA/ 2AA	.	8.A/L 8.c 8.f#	.	8.f#/	się	.
.	.	16G/Jk 16c 16e	.	16e/	przed	.
.	.	(4A'/ 4c 4f#	.	4f#/	ludź-	.
4BBB/ 4BB	.	4F#'/) 4B 4d	.	8d/	-mi	.
.	.	.	.	8d/	Jak	.
=33	=33	=33	=33	=33	=33	=33
*^	*	*^	*	*	*	*
!	!	!	!	!	!	!	!	!LO:DY:a
*	*xywh-5:220,2791,2630,819	*	*	*	*	*	*	*
*	*	*	*xywh-5:220,2791,2630,819	*xywh-5:220,2791,2630,819	*	*	*	*
2CC\) 2C	4ryy	.	8E/ 8e	(>8.B\L	.	8e/L	w kwia-	<
.	.	.	4.ryy	.	.	8f#/	.	.
.	.	.	.	16A\Jk	.	.	.	.
!	!	!	!	!	!LO:HP:a	!	!	!
.	8G/L)	.	.	2ryy	<	8g/	.	.
.	8G/	.	.	.	.	8b/J	.	.
(>4C\	8F#/	.	4e/	.	.	8a/	-tek	.
.	8E/J	.	.	.	[	8g/	u-	[
*v	*v	*	*v	*v	*	*	*	*
=34	=34	=34	=34	=34	=34	=34
8BB\)	.	8.F#>/L 8.d#X	.	4b\	-bra-	.
8r	.	.	.	.	.	.
.	.	(16e/Jk	>	.	.	.
4r	.	8f#/L	.	4f#/	-ła	.
.	.	8a/	.	.	.	.
!	!	!	!	!	!	!LO:DY:a
4r	.	8g/	.	[4b\	A	p
.	.	8f#/J)	]]	.	.	.
!!LO:PB:g=original
=35	=35	=35	=35	=35	=35	=35
*^	*	*	*	*	*	*
*xywh-6:226,413,2645,793	*xywh-6:226,413,2645,793	*xywh-6:226,413,2645,793	*xywh-6:226,413,2645,793	*	*xywh-6:226,413,2645,793	*	*
*ped	*	*	*	*	*	*	*
!LO:N:vis=2.	!	!	!	!	!	!	!
4G#X/	2.G#\	.	8e:/L 8b: 8ee:	pp	8b\]	.	.
!	!	!	!	!	!LO:TX:a:i:t=dolce	!	!
.	.	.	16.r	.	8cc\	gdy	.
.	.	.	(64g/LLL	.	.	.	.
.	.	.	64fn/JJJJ	.	.	.	.
4d/	.	.	2e/)	.	8.ee\	łez-	.
.	.	.	.	.	16dd\	-ki	.
*Xped	*	*	*	*	*	*	*
4d/	.	.	.	.	8cc\	mia-	.
.	.	.	.	.	8b\	-ła	.
=36	=36	=36	=36	=36	=36	=36	=36
*ped	*	*	*	*	*	*	*
!LO:N:vis=2	!	!	!	!	!	!	!
4A/	2.A\	.	8e:/L 8a: 8ee:	.	4b\	w o-	.
.	.	.	16.r	.	.	.	.
.	.	.	(64g/LLL	.	.	.	.
.	.	.	64fn/JJJJ	.	.	.	.
4c/	.	.	2e/)	.	2a/	-czach	.
*Xped	*	*	*	*	*	*	*
4c/	.	.	.	.	.	.	.
!!LO:LB:g=original
=37	=37	=37	=37	=37	=37	=37	=37
*ped	*	*	*	*	*	*	*
!LO:N:vis=2	!	!	!	!	!	!	!
*xywh-6:287,1189,2578,806	*xywh-6:287,1189,2578,806	*xywh-6:287,1189,2578,806	*xywh-6:287,1189,2578,806	*xywh-6:287,1189,2578,806	*xywh-6:287,1189,2578,806	*	*
4G#X/	2.G#\	.	8e:/L 8b: 8ee:	.	4r	.	.
.	.	.	16.r	.	.	.	.
.	.	.	(64g/LLL	.	.	.	.
.	.	.	64fn/JJJJ	.	.	.	.
4d/	.	.	2e/)	.	8e/	Gdy	.
.	.	.	.	.	8dd\	na	.
*Xped	*	*	*	*	*	*	*
4d/	.	.	.	.	8cc\	twa-	.
.	.	.	.	.	8b\	-rzy	.
=38	=38	=38	=38	=38	=38	=38	=38
*ped	*	*	*	*	*	*	*
!LO:N:vis=2	!	!	!	!	!	!	!
4A/	2A\	.	8e:/L 8a: 8ee:	.	8b/L	smu-	.
.	.	.	16.r	.	8a/J	.	.
.	.	.	(64g/LLL	.	.	.	.
.	.	.	64fn/JJJJ	.	.	.	.
4c/	.	.	8e/)	.	4e/	-tek,	.
.	.	.	8r	.	.	.	.
*Xped	*	*	*	*	*	*	*
4r	4ryy	.	(4e/ 4cc	.	4r	.	.
*v	*v	*	*	*	*	*	*
=39	=39	=39	=39	=39	=39	=39
!	!	!	!	!LO:TX:a:i:t=un poco più sonore	!	!
(2DD/ 2D	.	8.d/L) 8.f# 8.b	p	8.b\	Dość	.
.	.	16c/Jk 16f# 16a	.	16a/	jej	.
.	.	(4d'/ 4f# 4b	.	4b\	by-	.
4EE/) 4E	.	4B'/) 4e 4g	.	4g/	-ło	.
!!LO:LB:g=original
=40	=40	=40	=40	=40	=40	=40
*xywh-6:306,1983,2584,849	*	*xywh-6:306,1983,2584,849	*	*xywh-6:306,1983,2584,849	*	*
(2AAA/ 2AA	.	8.A/L 8.c 8.f#	.	8.f#/	na	.
.	.	16G/Jk 16c 16e	.	16e/	po-	.
.	.	(4A'/ 4c 4f#	.	4f#/	-cie-	.
4BBB/ 4BB	.	4F#'/) 4B 4d	.	4d/	-chę	.
=41	=41	=41	=41	=41	=41	=41
*	*	*^	*	*	*	*
*	*	*	*xywh-6:306,1983,2584,849	*	*	*	*
!	!	!	!	!LO:DY:a	!	!	!LO:HP:a:i:t=cresc
8CC#X/) 8GG 8C#X	.	8E/ 8e	8.B\L	sf	8e/L	Wiąz-	<
!	!	!	!	!	!LO:TX:a:i:t=e stringendo	!	!
8r	.	4.ryy	.	.	8f#/	.	.
.	.	.	16A\Jk	.	.	.	.
4r	.	.	8G\	.	8g/J	.	.
.	.	.	8r	.	8b\	-ki	.
4r	.	4r	4ryy	.	8cc#X\	nie-	.
.	.	.	.	.	8dd\	-za-	.
=42	=42	=42	=42	=42	=42	=42	=42
4.C#X\ 4.G	.	(>8.e/L	4.B\	<	2.ee\	-bu-	.
.	.	16f#/K	.	.	.	.	.
!	!	!LO:TX:b:i:t=e	!	!	!	!	!
.	.	8g/)	.	.	.	.	.
!	!	!LO:TX:b:i:t=strin -	!	!	!	!	!
8r	.	(>8b/	8r	.	.	.	.
4r	.	8cc#X/	4r	.	.	.	.
.	.	8dd/J)	.	.	.	.	.
*clefG2	*	*	*	*	*	*	*
!!LO:LB:g=original
=43	=43	=43	=43	=43	=43	=43	=43
*xywh-6:306,2795,2621,929	*	*xywh-6:306,2795,2621,929	*xywh-6:306,2795,2621,929	*	*xywh-6:306,2795,2621,929	*	*
!	!	!LO:TX:b:i:t=gendo	!	!	!	!	!
4c#X/ 4g	.	(8.ee/L	4b\	.	2dd\	-dek .	.
.	.	16ff#/Jk	.	.	.	.	.
*ped	*	*	*	*	*	*	*
4r	.	[2gg/)	8r	.	.	.	.
!	!	!LO:TX:b:i:t=molto	!	!	!	!	!
.	.	.	(<8ee\L	.	.	.	.
4r	.	.	(<8cc#X\	.	4r	.	.
.	.	.	[<8b\J	.	.	.	.
*clefF4	*	*	*	*	*	*	*
*	*	*v	*v	*	*	*	*
=44	=44	=44	=44	=44	=44	=44
8r	.	[2.g 2.b]_ 2.cc#)_ 2.ee)_ 2.gg_	.	2.r	.	.
(8e\L	.	.	.	.	.	.
8c#X\	.	.	.	.	.	.
8B\	.	.	.	.	.	.
8G\	.	.	.	.	.	.
8E\J	.	.	.	.	.	.
=45	=45	=45	=45	=45	=45	=45
8C#X/L	.	2.g\] 2.b] 2.cc#] 2.ee] 2.gg]	.	2.r	.	.
8BB/	.	.	.	.	.	.
8GG/	.	.	.	.	.	.
!LO:TX:a:i:t=ritard. un poco	!	!	!	!	!	!
8EE/	.	.	.	.	.	.
8DD/	.	.	.	.	.	.
*Xped	*	*	*	*	*	*
8CC#X/J)	.	.	.	.	.	.
!!LO:PB:g=original
=46||	=46||	=46||	=46||	=46||	=46||	=46||
*k[f#c#g#d#a#]	*	*k[f#c#g#d#a#]	*	*k[f#c#g#d#a#]	*	*
*M4/4	*	*M4/4	*	*M4/4	*	*
*met(c)	*	*met(c)	*	*met(c)	*	*
*^	*	*^	*	*	*	*
!	!	!	!	!	!	!LO:TX:a:i:t=con gran espressione	!	!
!	!	!	!	!	!	!LO:TX:a:B:t=Tempo I.	!	!
*xywh-7:159,357,2606,901	*xywh-7:159,357,2606,901	*xywh-7:159,357,2606,901	*xywh-7:159,357,2606,901	*xywh-7:159,357,2606,901	*	*xywh-7:159,357,2606,901	*	*
2.ryy	[2.FF#\	.	8r	8ryy	.	8r	.	.
.	.	.	8F#>/L	4.F#>\	.	8f#/L	I	.
.	.	.	8d#/	.	.	8d#/J	.	.
.	.	.	8e/J	.	.	8e/	w czem	.
!	!	!	!LO:TX:t=P:problem=mixed beam	!	!	!	!	!
.	.	.	4g#/	8g#\L	.	4g#/	gor-	.
.	.	.	.	8G#>/	.	.	.	.
4F#/	4FF#\]	.	4f#/	8An>/	.	4f#/	-szy,	.
.	.	.	.	8c#>/J	.	.	.	.
=47	=47	=47	=47	=47	=47	=47	=47	=47
2.ryy	[2.FF#\	.	8r	8ryy	.	8r	.	.
!	!	!	!LO:TX:t=P:problem=mixed beam	!	!	!	!	!
.	.	.	8F#>/L	4.F#>\	.	8f#/L	o-	.
.	.	.	8d#\	.	.	8d#/J	.	.
.	.	.	8e\J	.	.	8e/	-krut-	.
!	!	!	!LO:TX:t=P:problem=mixed beam	!	!	!	!	!
.	.	.	4a#X/	8a#\L	.	4.a#/	-niej-	.
.	.	.	.	8A#>/	.	.	.	.
4F#/	4FF#\]	.	4g#/	8B\	.	.	.	.
.	.	.	.	8d#\J	.	8g#/	-szy	.
=48	=48	=48	=48	=48	=48	=48	=48	=48
!	!	!	!LO:TX:t=P:problem=mixed beam	!LO:N:vis=2	!	!	!	!LO:DY:a
4ryy	[2FF#\	.	[2f#/	8f#\L	.	[2f#/	Za-	<
.	.	.	.	8F#>/	.	.	.	.
8F#/L	.	.	.	8d#\	.	.	.	.
!	!	!	!	!	!	!LO:TX:a:i:t=molto	!	!
8E/J	.	.	.	8c#\J	.	.	.	.
8D#/L	2FF#\_	.	(2f#/]	8B\L	<	8f#/]	.	.
8BB/	.	.	.	8d#\	.	8g#/	-męt	.
8C#/	.	.	.	8c#\	.	8a#/	nie-	.
8D#/J	.	.	.	8B\J	.	8b/	-po-	.
!!LO:LB:g=original
=49	=49	=49	=49	=49	=49	=49	=49	=49
*	*	*	*	*^	*	*	*	*
*xywh-7:214,1246,2526,778	*xywh-7:214,1246,2526,778	*xywh-7:214,1246,2526,778	*xywh-7:214,1246,2526,778	*xywh-7:214,1246,2526,778	*	*	*xywh-7:214,1246,2526,778	*	*
8C#/L	2FF#\_	.	2e#X/)	8B\L	2.ryy	.	2dd#\	-ję-	.
8BB/	.	.	.	8G#\	.	.	.	.	.
8AA#/	.	.	.	8A#\	.	.	.	.	.
8GG#/J	.	.	.	8B\J	.	.	.	.	.
8FF#/] 8C#	2ryy	.	8A#/ 8en	8ryy	.	.	8cc#\	-ty,	.
8r	.	.	8e/L	4.e\	.	.	4cc#\	Ser-	.
4r	.	.	8a#/	.	4a#\	.	.	.	.
.	.	.	8cc#/J	.	.	.	8cc#\	-ce	.
*v	*v	*	*	*	*	*	*	*	*
*	*	*	*v	*v	*	*	*	*
=50	=50	=50	=50	=50	=50	=50	=50
!	!	!LO:TX:b:i:t=molto	!	!	!LO:TX:a:i:t=con passione	!	!
4r	.	(2ee/	8ee\L	.	2ee\	wzię-	.
.	.	.	8b\	.	.	.	.
(2c#\	.	.	8a#\	.	.	.	.
.	.	.	8g#\J	.	.	.	.
!	!	!LO:TX:b:i:t=espress.	!	!	!	!	!
.	.	4dd#/)	8f##X\L	.	4dd#\	-ła	.
.	.	.	8g#\	.	.	.	.
4B\)	.	4r	8a#\	.	4r	.	.
!	!	!LO:TX:b:i:t=e	!	!	!	!	!
.	.	.	8g#\J	.	.	.	.
=51	=51	=51	=51	=51	=51	=51	=51
!	!	!LO:TX:b:i:t=sempre	!	!	!	!	!
(2A#\	.	2.cc#/	8cc#\L	.	8r	.	.
.	.	.	8f#\	.	4f#/	na	.
.	.	.	8e#X\	.	.	.	.
.	.	.	8en\J	.	8f#/	za-	.
4An\	.	.	8d#\L	<	4cc#\	-baw-	.
.	.	.	8e\	.	.	.	.
8B\L	.	[4b/	8g#\	.	8b\	-kę ,	.
8A\J)	.	.	8f#\J	.	8b\	Na	.
!!LO:LB:g=original
=52	=52	=52	=52	=52	=52	=52	=52
*^	*	*	*	*	*	*	*
*xywh-7:196,2049,2550,778	*xywh-7:196,2049,2550,778	*	*xywh-7:196,2049,2550,778	*xywh-7:196,2049,2550,778	*	*xywh-7:196,2049,2550,778	*	*
(>8G#\L	2ryy	.	4b/]	(8e\L	.	4b\	szczę-	.
8F#\	.	.	.	8dn\	.	.	.	.
8E#X\	.	.	2c#/	8c#\	.	4c#/	-ście	.
8D#\J	.	.	.	8B#X\J	.	.	.	.
8C#\)	8ryy	.	.	8Bn>/L	.	8r	.	.
4.CC#/	8CC#\L	.	.	8A#>/	.	8cc#\L	a	.
.	8GG#\	.	4c#/)	8B>/	.	8b\J	.	.
.	8BB\J	.	.	8G#>/J	.	8g#/	na	.
*v	*v	*	*	*	*	*	*	*
=53	=53	=53	=53	=53	=53	=53	=53
[2FF#\	.	(2.en/	8B>/L	.	4g#/	szczę-	.
.	.	.	8G#>/	.	.	.	.
.	.	.	8A#>/	.	2f#/	-ście	.
.	.	.	8B>/J	.	.	.	.
8FF#\]	.	.	8B#X\L	.	.	.	.
8r	.	.	8c#\J	.	.	.	.
.	.	8qe/	.	.	.	.	.
4FF#/ 4E	.	8.d#/L	4A#\	.	8r	.	.
.	.	.	.	.	8ee\	dya-	.
.	.	16c#/Jk)	.	.	.	.	.
=54	=54	=54	=54	=54	=54	=54	=54
*^	*	*	*	*	*	*	*
*ped	*	*	*	*	*	*	*	*
*	*xywh-7:196,2049,2550,778	*	*	*	*	*	*	*
8BBB/ 8BB	4ryy	.	8B/	4ryy	.	2dd#\	-men-	.
8r	.	.	8r	.	.	.	.	.
[4B:/ [4d#: [4g#:	[4An:\	.	[4b:/ [4dd#: [4gg#:	[4an:\	ff	.	.	.
8B/L] 8d#] 8g#]	8A\]	.	8b/L] 8dd#] 8gg#]	8a\]	.	[2b\	-ty!	.
*Xped	*	*	*	*	*	*	*	*
(8f#/	4.ryy	.	(<8ff#/	4.ryy	.	.	.	.
8d#/	.	.	8dd#/	.	.	.	.	.
8c#/J	.	.	8cc#/J	.	.	.	.	.
*v	*v	*	*	*	*	*	*	*
*	*	*v	*v	*	*	*	*
!!LO:LB:g=original
=55	=55	=55	=55	=55	=55	=55
*xywh-7:196,2810,2606,846	*	*xywh-7:196,2810,2606,846	*	*xywh-7:196,2810,2606,846	*	*
8B\L	.	8b/L	.	4b\]	.	.
8A#X\	.	8a#X/	.	.	.	.
8An\	.	8an/	.	4r	.	.
8F#\J	.	8f#/J	.	.	.	.
8Gn\L	.	8gn/L	.	2r	.	.
8E\	.	8e/	.	.	.	.
8Dn\	.	8dn/	.	.	.	.
8Cn\J)	.	8cn/J)	.	.	.	.
=56	=56	=56	=56	=56	=56	=56
(>4E\	.	(<4e/	.	1r	.	.
!	!	!LO:TX:b:i:t=rit. un poco	!	!	!	!
2GGn/	.	2Gn/	.	.	.	.
4AA#/	.	4A#/	.	.	.	.
*clefF4	*	*clefF4	*	*	*	*
=57	=57	=57	=57	=57	=57	=57
*^	*	*^	*	*	*	*
*	*xywh-7:196,2810,2606,846	*xywh-7:196,2810,2606,846	*	*xywh-7:196,2810,2606,846	*	*	*	*
*	*	*	*	*	*	*	*	*
[1BB)	4r	.	[1B)	4r	.	1r	.	.
.	8.r	.	.	8.r	.	.	.	.
.	(16EE\	.	.	16E\ (<16Gn	pp	.	.	.
.	4BBB\)	.	.	4D#\ 4F#)	.	.	.	.
.	8.r	.	.	8.r	.	.	.	.
.	16EE\	.	.	16E\ 16G	.	.	.	.
*v	*v	*	*	*	*	*	*	*
*	*	*v	*v	*	*	*	*
=58	=58	=58	=58	=58	=58	=58
1BBB 1BB]	.	1D# 1F# 1B]	.	1r	.	.
==	==	==	==	==	==	==
*-	*-	*-	*-	*-	*-	*-
!!!RDF**kern: N = linked
!!!RDF**kern: > = below
!!!RDF**kern: < = above
!!!system-decoration: s1[(s2,s3)]
!!!ENC: Filip Voros
!!!END: 2022-03-16
!!!ENC: Urszula Świątek
!!!END: 2022-03-23
!!!YEC: Copyright 2022 Narodowy Instytut Fryderyka Chopina (https://polishscores.org)
!!!YEM: License CC-BY-4.0 (https://creativecommons.org/licenses/by/4.0)
!!!IIIF: https://polona.pl/iiif/item/Mzg4MDUyNjQ/manifest.json
!!!ENC-iiif: Konrad Tyszka
!!!END-iiif: 2022-08-29
